src/components/Knob/images/knob-bg.svg

<svg  viewBox="0 0 200 200" xmlns="http://www.w3.org/2000/svg"> <path d="M128.603 16.3347C115.825 -5.44489 84.3365 -5.4449 71.5579 16.3347L71.0938 17.1257C65.1986 27.1733 54.4518 33.378 42.8027 33.4596L41.8856 33.466C16.6346 33.6428 0.890585 60.9123 13.3629 82.8687L13.8159 83.6661C19.5698 93.7953 19.5698 106.205 13.8159 116.334L13.3629 117.131C0.890586 139.088 16.6346 166.357 41.8856 166.534L42.8027 166.54C54.4517 166.622 65.1986 172.827 71.0938 182.874L71.5579 183.665C84.3365 205.445 115.825 205.445 128.603 183.665L129.067 182.874C134.963 172.827 145.709 166.622 157.358 166.54L158.276 166.534C183.527 166.357 199.271 139.088 186.798 117.131L186.345 116.334C180.591 106.205 180.591 93.7953 186.345 83.6661L186.798 82.8687C199.271 60.9123 183.527 33.6428 158.276 33.466L157.358 33.4596C145.709 33.378 134.963 27.1733 129.067 17.1257L128.603 16.3347ZM100.081 149.604C127.476 149.604 149.685 127.396 149.685 100C149.685 72.6042 127.476 50.3955 100.081 50.3955C72.6848 50.3955 50.4761 72.6042 50.4761 100C50.4761 127.396 72.6848 149.604 100.081 149.604Z" fill="#111111" stroke="#3C3C3C" stroke-width="2.5" /> </svg>

<svg viewBox="0 0 200 200" xmlns="http://www.w3.org/2000/svg"><path d="M128.603 16.335c-12.778-21.78-44.267-21.78-57.045 0l-.464.79A33.07 33.07 0 0 1 42.803 33.46l-.917.006C16.635 33.643.89 60.912 13.363 82.869l.453.797a33.07 33.07 0 0 1 0 32.668l-.453.797c-12.472 21.957 3.272 49.226 28.523 49.403l.917.006a33.072 33.072 0 0 1 28.29 16.334l.465.791c12.778 21.78 44.267 21.78 57.045 0l.464-.791a33.073 33.073 0 0 1 28.291-16.334l.918-.006c25.251-.177 40.995-27.446 28.522-49.403l-.453-.797a33.07 33.07 0 0 1 0-32.668l.453-.797c12.473-21.957-3.271-49.226-28.522-49.403l-.918-.006a33.07 33.07 0 0 1-28.291-16.334l-.464-.791zm-28.522 133.269c27.395 0 49.604-22.208 49.604-49.604s-22.209-49.605-49.604-49.605c-27.396 0-49.605 22.21-49.605 49.605 0 27.396 22.209 49.604 49.605 49.604z" fill="#111" stroke="#3C3C3C" stroke-width="2.5"/></svg>
